X: 3321
M: C
L: 1/8
K: D
(Ac) |\
dcdA FDBA | GFED CEA,C |\
dcdA BGgf | edcB AGFE |\
|: (cd) |\
ecA^G Aceg | fdA^G Adfa |\
gbeg fadf | edcB AABc |\
dcdA BGgf | edcB AGFE |\


